public/icons/icon/trash.svg

<svg width="30" height="30" viewBox="0 0 30 30" fill="none" xmlns="http://www.w3.org/2000/svg">
<path fill-rule="evenodd" clip-rule="evenodd" d="M10.5 3.3V5.1H19.5V3.3H10.5ZM21.3 5.1V2.85C21.3 2.10441 20.6956 1.5 19.95 1.5H10.05C9.30444 1.5 8.70002 2.10442 8.70002 2.85V5.1H3.30002C2.80297 5.1 2.40002 5.50294 2.40002 6C2.40002 6.49706 2.80297 6.9 3.30002 6.9H5.26103C5.2611 6.9509 5.26332 7.00224 5.26775 7.05395L6.96742 26.8539C7.04734 27.785 7.82639 28.5 8.76082 28.5H21.2392C22.1737 28.5 22.9527 27.785 23.0326 26.8539L24.7323 7.05395C24.7367 7.00224 24.7389 6.9509 24.739 6.9H26.7C27.1971 6.9 27.6 6.49706 27.6 6C27.6 5.50294 27.1971 5.1 26.7 5.1H21.3ZM22.9389 6.9H7.06116L8.76082 26.7H21.2392L22.9389 6.9Z" fill="black"/>
<path fill-rule="evenodd" clip-rule="evenodd" d="M11.3253 11.4031C11.8206 11.3618 12.2556 11.7299 12.2969 12.2253L13.1969 23.0253C13.2382 23.5206 12.8701 23.9556 12.3748 23.9969C11.8794 24.0382 11.4444 23.6701 11.4031 23.1747L10.5031 12.3747C10.4619 11.8794 10.8299 11.4444 11.3253 11.4031Z" fill="black"/>
<path fill-rule="evenodd" clip-rule="evenodd" d="M17.6253 23.9969C17.1299 23.9556 16.7619 23.5206 16.8031 23.0253L17.7031 12.2253C17.7444 11.7299 18.1794 11.3618 18.6748 11.4031C19.1701 11.4444 19.5382 11.8794 19.4969 12.3747L18.5969 23.1747C18.5556 23.6701 18.1206 24.0382 17.6253 23.9969Z" fill="black"/>
</svg>

<svg xmlns="http://www.w3.org/2000/svg" width="30" height="30" fill="none"><path fill="#000" fill-rule="evenodd" d="M10.5 3.3v1.8h9V3.3h-9Zm10.8 1.8V2.85a1.35 1.35 0 0 0-1.35-1.35h-9.9A1.35 1.35 0 0 0 8.7 2.85V5.1H3.3a.9.9 0 0 0 0 1.8h1.961c0 .05.002.102.007.154l1.7 19.8A1.8 1.8 0 0 0 8.76 28.5h12.478a1.8 1.8 0 0 0 1.794-1.646l1.7-19.8c.004-.052.006-.103.006-.154H26.7a.9.9 0 1 0 0-1.8h-5.4Zm1.639 1.8H7.06l1.7 19.8h12.478l1.7-19.8Z" clip-rule="evenodd"/><path fill="#000" fill-rule="evenodd" d="M11.325 11.403a.9.9 0 0 1 .972.822l.9 10.8a.9.9 0 1 1-1.794.15l-.9-10.8a.9.9 0 0 1 .822-.972ZM17.625 23.997a.9.9 0 0 1-.822-.972l.9-10.8a.9.9 0 0 1 1.794.15l-.9 10.8a.9.9 0 0 1-.972.822Z" clip-rule="evenodd"/></svg>
